X: 25772
T: Mary's Spinning Wheel
R: slide
M: 12/8
K: Gmajor
|:D2G G2G F2G A2c|B2c A2G F3 D3|
D2G G2G F2G A2c|B2c A2F G3 G3:|
|:B2d d2d B2d d2B|c2B A2G F3 D3|
D2G G2G F2G A2c|B2c A2F G3 G3:|

